static/img/kroki/5bff05a5380ccb9f24d15ce1e2bcb6c3.svg

<?xml version="1.0" encoding="us-ascii" standalone="no"?><svg xmlns="http://www.w3.org/2000/svg" xmlns:xlink="http://www.w3.org/1999/xlink" contentStyleType="text/css" height="252px" preserveAspectRatio="none" style="width:485px;height:252px;" version="1.1" viewBox="0 0 485 252" width="485px" zoomAndPan="magnify"><defs/><g><!--class azure_cosmos_db_account--><g id="elem_azure_cosmos_db_account"><rect codeLine="23" fill="#3D176E" height="39.7891" id="azure_cosmos_db_account" rx="2.5" ry="2.5" style="stroke:#000D19;stroke-width:0.5;" width="261" x="59.5" y="7"/><ellipse cx="74.5" cy="26.8945" fill="#ADD1B2" rx="11" ry="11" style="stroke:#181818;stroke-width:1.0;"/><path d="M77.4688,32.5352 Q76.8906,32.832 76.25,32.9727 Q75.6094,33.1289 74.9063,33.1289 Q72.4063,33.1289 71.0781,31.4883 Q69.7656,29.832 69.7656,26.707 Q69.7656,23.582 71.0781,21.9258 Q72.4063,20.2695 74.9063,20.2695 Q75.6094,20.2695 76.25,20.4258 Q76.9063,20.582 77.4688,20.8789 L77.4688,23.5977 Q76.8438,23.0195 76.25,22.7539 Q75.6563,22.4727 75.0313,22.4727 Q73.6875,22.4727 73,23.5508 Q72.3125,24.6133 72.3125,26.707 Q72.3125,28.8008 73,29.8789 Q73.6875,30.9414 75.0313,30.9414 Q75.6563,30.9414 76.25,30.6758 Q76.8438,30.3945 77.4688,29.8164 L77.4688,32.5352 Z " fill="#000000"/><text fill="#D9B8FF" font-family="Helvetica" font-size="17" lengthAdjust="spacing" textLength="219" x="93.5" y="32.7798">azure_cosmos_db_account</text></g><!--class azure_cosmos_db_sql_role_assignment--><g id="elem_azure_cosmos_db_sql_role_assignment"><rect codeLine="26" fill="#3D176E" height="39.7891" id="azure_cosmos_db_sql_role_assignment" rx="2.5" ry="2.5" style="stroke:#000D19;stroke-width:0.5;" width="366" x="7" y="206.58"/><ellipse cx="22" cy="226.4745" fill="#ADD1B2" rx="11" ry="11" style="stroke:#181818;stroke-width:1.0;"/><path d="M24.9688,232.1152 Q24.3906,232.412 23.75,232.5527 Q23.1094,232.7089 22.4063,232.7089 Q19.9063,232.7089 18.5781,231.0683 Q17.2656,229.412 17.2656,226.287 Q17.2656,223.162 18.5781,221.5058 Q19.9063,219.8495 22.4063,219.8495 Q23.1094,219.8495 23.75,220.0058 Q24.4063,220.162 24.9688,220.4589 L24.9688,223.1777 Q24.3438,222.5995 23.75,222.3339 Q23.1563,222.0527 22.5313,222.0527 Q21.1875,222.0527 20.5,223.1308 Q19.8125,224.1933 19.8125,226.287 Q19.8125,228.3808 20.5,229.4589 Q21.1875,230.5214 22.5313,230.5214 Q23.1563,230.5214 23.75,230.2558 Q24.3438,229.9745 24.9688,229.3964 L24.9688,232.1152 Z " fill="#000000"/><text fill="#D9B8FF" font-family="Helvetica" font-size="17" lengthAdjust="spacing" textLength="324" x="41" y="232.3598">azure_cosmos_db_sql_role_assignment</text></g><!--class azure_cosmos_db_sql_role_definition--><g id="elem_azure_cosmos_db_sql_role_definition"><rect codeLine="29" fill="#3D176E" height="39.7891" id="azure_cosmos_db_sql_role_definition" rx="2.5" ry="2.5" style="stroke:#000D19;stroke-width:0.5;" width="349" x="129.5" y="106.79"/><ellipse cx="144.5" cy="126.6845" fill="#ADD1B2" rx="11" ry="11" style="stroke:#181818;stroke-width:1.0;"/><path d="M147.4688,132.3252 Q146.8906,132.622 146.25,132.7627 Q145.6094,132.9189 144.9063,132.9189 Q142.4063,132.9189 141.0781,131.2783 Q139.7656,129.622 139.7656,126.497 Q139.7656,123.372 141.0781,121.7158 Q142.4063,120.0595 144.9063,120.0595 Q145.6094,120.0595 146.25,120.2158 Q146.9063,120.372 147.4688,120.6689 L147.4688,123.3877 Q146.8438,122.8095 146.25,122.5439 Q145.6563,122.2627 145.0313,122.2627 Q143.6875,122.2627 143,123.3408 Q142.3125,124.4033 142.3125,126.497 Q142.3125,128.5908 143,129.6689 Q143.6875,130.7314 145.0313,130.7314 Q145.6563,130.7314 146.25,130.4658 Q146.8438,130.1845 147.4688,129.6064 L147.4688,132.3252 Z " fill="#000000"/><text fill="#D9B8FF" font-family="Helvetica" font-size="17" lengthAdjust="spacing" textLength="307" x="163.5" y="132.5698">azure_cosmos_db_sql_role_definition</text></g><!--link azure_cosmos_db_account to azure_cosmos_db_sql_role_assignment--><g id="link_azure_cosmos_db_account_azure_cosmos_db_sql_role_assignment"><path codeLine="32" d="M162,47.06 C143.98,61.2 122.1,82.21 112,106.79 C105.28,123.15 105.28,130.22 112,146.58 C122.1,171.17 139.2597,188.4661 157.2797,202.6061 " fill="none" id="azure_cosmos_db_account-to-azure_cosmos_db_sql_role_assignment" style="stroke:#1A83AF;stroke-width:2.0;"/><polygon fill="#1A83AF" points="162,206.31,157.3889,197.6073,158.0664,203.2234,152.4503,203.901,162,206.31" style="stroke:#1A83AF;stroke-width:2.0;"/></g><!--link azure_cosmos_db_account to azure_cosmos_db_sql_role_definition--><g id="link_azure_cosmos_db_account_azure_cosmos_db_sql_role_definition"><path codeLine="33" d="M212.52,47.22 C232.51,64.36 256.997,85.3622 276.967,102.5022 " fill="none" id="azure_cosmos_db_account-to-azure_cosmos_db_sql_role_definition" style="stroke:#1A83AF;stroke-width:2.0;"/><polygon fill="#1A83AF" points="281.52,106.41,277.2957,97.5131,277.7259,103.1535,272.0854,103.5837,281.52,106.41" style="stroke:#1A83AF;stroke-width:2.0;"/></g><!--link azure_cosmos_db_sql_role_definition to azure_cosmos_db_sql_role_assignment--><g id="link_azure_cosmos_db_sql_role_definition_azure_cosmos_db_sql_role_assignment"><path codeLine="34" d="M281.48,147.01 C261.49,164.15 237.003,185.1522 217.033,202.2922 " fill="none" id="azure_cosmos_db_sql_role_definition-to-azure_cosmos_db_sql_role_assignment" style="stroke:#1A83AF;stroke-width:2.0;"/><polygon fill="#1A83AF" points="212.48,206.2,221.9146,203.3737,216.2741,202.9435,216.7043,197.3031,212.48,206.2" style="stroke:#1A83AF;stroke-width:2.0;"/></g><!--SRC=[fP1DJm8n48Rl-okQS2PX9GfSJ5OIeXTYn9incsuxXOPj1wU318p_NH0_wguB6A_pFfdtcPbP3GBSWjV2WIk0GXBcrYyaIISo8bmDiKGIBMEawVQguGWz7mN6qe6uXl8Ps2fP9UvdLiqzX23EekXAglcKSEdrVZsJz64RWUU86fOoX8oPRB5aY6JqeEWRKoMhIrjTdVOke8OXQQ0FfDFfw7HGHOvM7RpxYvZO3OWqVjeO6MgQjOftwg3bZeWaQuT-vesEjr9hwwVYF9hTxPt80_sOJsPIusf76rc6k2Om422l5p2iNGM3lZQzN-6R9ZXHkzS9kLaIv0g3mv3h8fTARLaMBqdose24fp8dB27VXdRg7Po8Qp3MMxReztXJTVkXbMRzRZPwR5-UKlxFHTzQoIdgVxPx0m00]--></g></svg>

<svg xmlns="http://www.w3.org/2000/svg" width="485" height="252" viewBox="0 0 485 252"><rect width="261" height="39.789" x="59.5" y="7" fill="#3D176E" rx="2.5" ry="2.5" style="stroke:#000d19;stroke-width:.5"/><circle cx="74.5" cy="26.895" r="11" fill="#ADD1B2" style="stroke:#181818;stroke-width:1"/><path d="M77.469 32.535q-.578.297-1.219.438-.64.156-1.344.156-2.5 0-3.828-1.64-1.312-1.657-1.312-4.782t1.312-4.781q1.328-1.656 3.828-1.656.703 0 1.344.156.656.156 1.219.453v2.719q-.625-.578-1.219-.844-.594-.281-1.219-.281-1.344 0-2.031 1.078-.687 1.062-.687 3.156T73 29.879q.688 1.062 2.031 1.062.625 0 1.219-.265.594-.281 1.219-.86z"/><text x="93.5" y="32.78" fill="#D9B8FF" font-family="Helvetica" font-size="17" textLength="219">azure_cosmos_db_account</text><rect width="366" height="39.789" x="7" y="206.58" fill="#3D176E" rx="2.5" ry="2.5" style="stroke:#000d19;stroke-width:.5"/><circle cx="22" cy="226.475" r="11" fill="#ADD1B2" style="stroke:#181818;stroke-width:1"/><path d="M24.969 232.115q-.578.297-1.219.438-.64.156-1.344.156-2.5 0-3.828-1.64-1.312-1.657-1.312-4.782t1.312-4.781q1.328-1.656 3.828-1.656.703 0 1.344.156.656.156 1.219.453v2.719q-.625-.578-1.219-.844-.594-.281-1.219-.281-1.343 0-2.031 1.078-.687 1.062-.687 3.156t.687 3.172q.688 1.062 2.031 1.062.625 0 1.219-.265.594-.281 1.219-.86z"/><text x="41" y="232.36" fill="#D9B8FF" font-family="Helvetica" font-size="17" textLength="324">azure_cosmos_db_sql_role_assignment</text><rect width="349" height="39.789" x="129.5" y="106.79" fill="#3D176E" rx="2.5" ry="2.5" style="stroke:#000d19;stroke-width:.5"/><circle cx="144.5" cy="126.684" r="11" fill="#ADD1B2" style="stroke:#181818;stroke-width:1"/><path d="M147.469 132.325q-.578.297-1.219.438-.64.156-1.344.156-2.5 0-3.828-1.64-1.312-1.657-1.312-4.782t1.312-4.781q1.328-1.656 3.828-1.656.703 0 1.344.156.656.156 1.219.453v2.719q-.625-.579-1.219-.844-.594-.281-1.219-.281-1.344 0-2.031 1.078-.687 1.062-.687 3.156t.687 3.172q.688 1.062 2.031 1.062.625 0 1.219-.265.594-.281 1.219-.86z"/><text x="163.5" y="132.57" fill="#D9B8FF" font-family="Helvetica" font-size="17" textLength="307">azure_cosmos_db_sql_role_definition</text><path fill="none" d="M162 47.06c-18.02 14.14-39.9 35.15-50 59.73-6.72 16.36-6.72 23.43 0 39.79 10.1 24.59 27.26 41.886 45.28 56.026" style="stroke:#1a83af;stroke-width:2"/><path fill="#1A83AF" d="m162 206.31-4.611-8.703.677 5.616-5.616.678z" style="stroke:#1a83af;stroke-width:2"/><path fill="none" d="M212.52 47.22c19.99 17.14 44.477 38.142 64.447 55.282" style="stroke:#1a83af;stroke-width:2"/><path fill="#1A83AF" d="m281.52 106.41-4.224-8.897.43 5.64-5.64.43z" style="stroke:#1a83af;stroke-width:2"/><path fill="none" d="M281.48 147.01c-19.99 17.14-44.477 38.142-64.447 55.282" style="stroke:#1a83af;stroke-width:2"/><path fill="#1A83AF" d="m212.48 206.2 9.435-2.826-5.64-.43.43-5.64z" style="stroke:#1a83af;stroke-width:2"/></svg>
